src/svgs/eslint.svg

<?xml version="1.0" encoding="UTF-8" standalone="no"?>
<svg
   viewBox="0 0 32 32"
   version="1.1"
   id="svg959"
   xmlns="http://www.w3.org/2000/svg"
   xmlns:svg="http://www.w3.org/2000/svg">
  <defs
     id="defs963" />
  <path
     id="path955"
     d="M 10.5 7 L 5.4003906 16 L 10.5 25 L 21.800781 25 L 26.5 16 L 21.800781 7 L 10.5 7 z M 16 8.6992188 L 22.300781 12.599609 L 22.300781 19.699219 L 16 23.300781 L 9.6992188 19.699219 L 9.6992188 12.599609 L 16 8.6992188 z M 16 11.099609 L 11.800781 13.699219 L 11.800781 18.5 L 16 20.900391 L 20.199219 18.5 L 20.199219 13.699219 L 16 11.099609 z " />
</svg>

<svg xmlns="http://www.w3.org/2000/svg" viewBox="0 0 32 32"><path d="M21.8 7H10.5l-5.1 9 5.1 9h11.3l4.7-9-4.7-9zM16 23.3l-6.3-3.6v-7.1L16 8.7l6.3 3.9v7.1L16 23.3z"/><path d="M11.8 13.7v4.8l4.2 2.4 4.2-2.4v-4.8L16 11.1z"/></svg>
